X:059 
T:Fanning's Jig
S:Padraig O'Keeffe MS
F:file ID: cre.5/059fann
B:CRE5.037 (Port an FhionnÃÂÃÂÃÂÃÂ¡naigh)
M:6/8
Q:160
R:jig
K:G
D|GBd dBG|FEF AFD|EDE GFG|BAB edB|
GBd dBG|FEF AFD|gfe dBA|BEE E2:|
f|geb geb|gegag|fda fda|fdf agf|
ede gfg|baf gfe|gfe dBA|BEE E2:|

%%%

